src/assets/icons/heart.svg

<svg width="24" height="24" xmlns="http://www.w3.org/2000/svg">
 <g>
  <title>background</title>
  <rect fill="none" id="canvas_background" height="602" width="802" y="-1" x="-1"/>
 </g>
 <g>
  <title>Layer 1</title>
  <path fill="#59b1cc" id="svg_1" d="m12,21.35l-1.45,-1.32c-5.15,-4.67 -8.55,-7.76 -8.55,-11.53c0,-3.09 2.42,-5.5 5.5,-5.5c1.74,0 3.41,0.81 4.5,2.08c1.09,-1.27 2.76,-2.08 4.5,-2.08c3.08,0 5.5,2.41 5.5,5.5c0,3.77 -3.4,6.86 -8.55,11.53l-1.45,1.32z"/>
 </g>
</svg>

<?xml version="1.0" encoding="UTF-8"?><!DOCTYPE svg PUBLIC "-//W3C//DTD SVG 1.1//EN" "http://www.w3.org/Graphics/SVG/1.1/DTD/svg11.dtd"><svg xmlns="http://www.w3.org/2000/svg" xmlns:xlink="http://www.w3.org/1999/xlink" version="1.1" width="24" height="24" viewBox="0 0 24 24"><path d="M12,21.35L10.55,20.03C5.4,15.36 2,12.27 2,8.5C2,5.41 4.42,3 7.5,3C9.24,3 10.91,3.81 12,5.08C13.09,3.81 14.76,3 16.5,3C19.58,3 22,5.41 22,8.5C22,12.27 18.6,15.36 13.45,20.03L12,21.35Z" /></svg>
